Catalina-dark/actions/16/irc-remove-operator.svg

<svg xmlns="http://www.w3.org/2000/svg" width="16" height="16" viewBox="0 0 16 16">
 <defs>
  <style id="current-color-scheme" type="text/css">
   .ColorScheme-Text { color:#5c616c; } .ColorScheme-Highlight { color:#5294e2; }
  </style>
 </defs>
 <path style="fill:currentColor" class="ColorScheme-Highlight" d="M 2 0 C 0.892 0 0 0.892 0 2 L 0 14 C 0 15.108 0.892 16 2 16 L 14 16 C 15.108 16 16 15.108 16 14 L 16 2 C 16 0.892 15.108 0 14 0 L 2 0 z M 3.7148438 2 L 12.285156 2 C 13.235156 2 14 2.7651437 14 3.7148438 L 14 12.285156 C 14 13.235156 13.235156 14 12.285156 14 L 3.7148438 14 C 2.7651438 14 2 13.235156 2 12.285156 L 2 3.7148438 C 2 2.7651438 2.7651437 2 3.7148438 2 z M 6.7402344 3 L 6.6289062 4.3164062 A 3.964 3.9286 0 0 0 5.4707031 4.9804688 L 4.2617188 4.4179688 L 3.0019531 6.5820312 L 4.0976562 7.3378906 A 3.964 3.9286 0 0 0 4.0371094 8 A 3.964 3.9286 0 0 0 4.0957031 8.6660156 L 3.0019531 9.4179688 L 4.2617188 11.582031 L 5.4667969 11.019531 A 3.964 3.9286 0 0 0 6.6289062 11.679688 L 6.7402344 13 L 9.2617188 13 L 9.3730469 11.683594 A 3.964 3.9286 0 0 0 10.53125 11.019531 L 11.740234 11.582031 L 13.001953 9.4179688 L 11.904297 8.6621094 A 3.964 3.9286 0 0 0 11.964844 8 A 3.964 3.9286 0 0 0 11.908203 7.3339844 L 13.001953 6.5820312 L 11.740234 4.4179688 L 10.535156 4.9804688 A 3.964 3.9286 0 0 0 9.3730469 4.3203125 L 9.2617188 3 L 6.7402344 3 z M 8.0019531 6.5722656 A 1.4414 1.4286 0 0 1 9.4433594 8 A 1.4414 1.4286 0 0 1 8.0019531 9.4277344 A 1.4414 1.4286 0 0 1 6.5605469 8 A 1.4414 1.4286 0 0 1 8.0019531 6.5722656 z"/>
</svg>

<svg width="16" height="16" viewBox="0 0 16 16" xmlns="http://www.w3.org/2000/svg">
<defs>
<style id="current-color-scheme" type="text/css">.ColorScheme-Text { color:#5c616c; } .ColorScheme-Highlight { color:#5294e2; }</style>
</defs>
<path class="ColorScheme-Highlight" d="m2 0c-1.108 0-2 0.892-2 2v12c0 1.108 0.892 2 2 2h12c1.108 0 2-0.892 2-2v-12c0-1.108-0.892-2-2-2h-12zm1.7148 2h8.5703c0.95 0 1.7148 0.76514 1.7148 1.7148v8.5703c0 0.95-0.76484 1.7148-1.7148 1.7148h-8.5703c-0.9497 0-1.7148-0.76484-1.7148-1.7148v-8.5703c0-0.9497 0.76514-1.7148 1.7148-1.7148zm3.0254 1-0.11133 1.3164a3.964 3.9286 0 0 0-1.1582 0.66406l-1.209-0.5625-1.2598 2.1641 1.0957 0.75586a3.964 3.9286 0 0 0-0.060547 0.66211 3.964 3.9286 0 0 0 0.058594 0.66602l-1.0938 0.75195 1.2598 2.1641 1.2051-0.5625a3.964 3.9286 0 0 0 1.1621 0.66016l0.11133 1.3203h2.5215l0.11133-1.3164a3.964 3.9286 0 0 0 1.1582-0.66406l1.209 0.5625 1.2617-2.1641-1.0977-0.75586a3.964 3.9286 0 0 0 0.060547-0.66211 3.964 3.9286 0 0 0-0.056641-0.66602l1.0938-0.75195-1.2617-2.1641-1.2051 0.5625a3.964 3.9286 0 0 0-1.1621-0.66016l-0.11133-1.3203h-2.5215zm1.2617 3.5723a1.4414 1.4286 0 0 1 1.4414 1.4277 1.4414 1.4286 0 0 1-1.4414 1.4277 1.4414 1.4286 0 0 1-1.4414-1.4277 1.4414 1.4286 0 0 1 1.4414-1.4277z" fill="currentColor"/>
</svg>
